Papirus/22x22/apps/steam_icon_341800.svg

<svg width="22" height="22" version="1.1" xmlns="http://www.w3.org/2000/svg">
 <circle cx="8.8571434" cy="13.643071" r="7.1428571" style="opacity:.2"/>
 <path d="m15.642857 11.500215 1.071428-1.428572-2.857142-3.2142855-2.142857 0.3571425z" style="opacity:.2"/>
 <path d="m15.545592 8.7878125s1.402294 0.125495 1.916703-0.314341c0.514409-0.4398355 0.439458-0.558439 0.420492-0.8452155-0.01897-0.286776-0.23241-0.4004405-0.233735-0.7422885-0.0013-0.341848 0.136662-0.385753 0.136662-0.385753h0.357143l0.357143 1.0714285v-0.7142855l1.428571 0.7142855-1.071428-1.0714285h1.428571l-1.428571-1.0714285 1.428571-1.0714285-1.785714 0.3571425 0.714286-2.5-1.519989 2.2594905-0.622868-1.5452045v1.4285715l-0.714286-0.7142858 0.252046 1.2695233-1.680618-0.5552375 1.428572 1.0714285 0.714286 0.3571425s-0.130439 0.62023-0.0958 0.9391475c0.03463 0.3189175 0.281926 0.6829565 0.270493 0.9044775-0.01143 0.221521-0.04916 0.5891125-1.060777 0.574344-1.011615-0.01477-1.360147-0.1140175-1.360147-0.1140175z" style="opacity:.2"/>
 <circle cx="8.8571434" cy="13.142857" r="7.1428571" style="fill:#e4e4e4"/>
 <path d="m15.642857 11 1.071428-1.428571-2.857142-3.214286-2.142857 0.3571425z" style="fill:#e4e4e4"/>
 <path d="m15.545592 8.287598s1.402294 0.125495 1.916703-0.314341c0.514409-0.4398355 0.439458-0.558439 0.420492-0.8452155-0.01897-0.286776-0.23241-0.4004405-0.233735-0.7422885-0.0013-0.341848 0.136662-0.385753 0.136662-0.385753h0.357143l0.357142 1.0714285v-0.7142855l1.428572 0.7142855-1.071429-1.0714285h1.428572l-1.428572-1.0714285 1.428572-1.0714287-1.785715 0.3571427 0.714286-2.5-1.519988 2.2594905-0.622869-1.5452045v1.4285713l-0.714285-0.7142857 0.252046 1.2695234-1.680618-0.5552377 1.428572 1.0714287 0.714286 0.3571425s-0.130439 0.62023-0.0958 0.9391475c0.03463 0.3189175 0.281925 0.6829565 0.270493 0.9044775-0.01143 0.221521-0.04916 0.5891125-1.060777 0.574344-1.011615-0.01477-1.360147-0.1140175-1.360147-0.1140175z" style="fill:#e4e4e4"/>
 <circle cx="8.8571434" cy="13.142857" r="5.7142859" style="fill:#4f4f4f"/>
 <circle cx="8.8571434" cy="13.142857" r="5.3571429" style="fill:#c2352a"/>
 <rect x="11.357143" y="13.642811" width="2.5" height=".71428573" ry=".35714287" style="opacity:.2"/>
 <rect transform="rotate(-30)" x="3.0731204" y="16.654993" width="2.5" height=".71428573" ry=".35714287" style="opacity:.2"/>
 <rect x="11.357143" y="13.142857" width="2.5" height=".71428573" ry=".35714287" style="fill:#e4e4e4"/>
 <rect transform="rotate(-30)" x="3.3230965" y="16.222021" width="2.5" height=".71428573" ry=".35714287" style="fill:#e4e4e4"/>
 <rect transform="matrix(.8660254 .5 .5 -.8660254 0 0)" x="17.052355" y="-7.5577521" width="2.5" height=".71428573" ry=".35714287" style="opacity:.2"/>
 <rect transform="matrix(.8660254 .5 .5 -.8660254 0 0)" x="16.802378" y="-7.1247787" width="2.5" height=".71428573" ry=".35714287" style="fill:#e4e4e4"/>
 <path d="m8.8574217 8.285156c-2.8446661 0-5.1706158 2.218019-5.3457028 5.018555a5.357143 5.357143 0 0 0 4.7402338 5.15332c0.705433-0.11294 0.842138-0.276178 1.042969-0.425781 0.236753-0.176362 0.294922-0.727539 0.294922-0.727539s-0.02213-1.220976 0.02735-1.314453c0.04948-0.09348 0.6189483-0.682232 0.5908203-0.799805-0.02402-0.100369-0.5625403-0.47859-0.7021533-0.58789-0.139613-0.109301-0.933594-0.613282-0.933594-0.613282s-0.122095-0.04891-0.137695-0.139648c-0.0156-0.09074 0.147461-0.174805 0.147461-0.174805s1.9849673-0.876388 2.0341803-0.979492c0.04949-0.103682-0.32737-0.297897-0.444336-0.577148-0.116968-0.279251 0.01132-0.698848 0.07226-0.742188 0 0 0.386658-0.01164 0.566406-0.02832 0.179749-0.01668 0.477844-0.116737 0.584961-0.5 0.107122-0.383263-0.692667-0.812528-1.303706-1.370117-0.3388943-0.309251-0.4203733-0.7737255-0.4277343-1.129883-0.267087-0.040785-0.536457-0.061443-0.80664-0.0615235z" style="opacity:.2"/>
 <path d="m8.8571427 7.785714c-2.9586681 0-5.357143 2.398475-5.357143 5.357143 8e-4 2.106964 1.2365709 4.017805 3.157785 4.882812 0.327445 0.0237 0.726868 0.03074 1.162806-0.01255 1.098185-0.109065 1.237857-0.305641 1.47461-0.482003s0.295061-0.726842 0.295061-0.726842-0.02227-1.221394 0.02721-1.314872c0.04948-0.09348 0.6182503-0.681813 0.5901223-0.799386-0.02402-0.100368-0.5621223-0.478729-0.7017343-0.588029-0.139613-0.1093-0.933315-0.613142-0.933315-0.613142s-0.122514-0.04947-0.138114-0.140206c-0.0156-0.09074 0.14788-0.174386 0.14788-0.174386s1.9848273-0.876249 2.0340403-0.979353c0.04949-0.103682-0.327369-0.298316-0.444336-0.577567s0.0109-0.698848 0.07185-0.742188c0 0 0.386658-0.01122 0.566407-0.02791 0.179748-0.01668 0.478122-0.116876 0.58524-0.500139 0.107113-0.383264-0.692677-0.812388-1.303716-1.369977-0.3388943-0.3092515-0.4202333-0.773865-0.4275943-1.1300225-0.267087-0.040785-0.536876-0.061303-0.807059-0.061384z" style="fill:#e4e4e4"/>
</svg>

<?xml version="1.0" encoding="UTF-8" standalone="no"?>
<svg
   width="22"
   height="22"
   version="1.1"
   id="svg4047"
   sodipodi:docname="steam_icon_341800@22x22.svg"
   inkscape:version="1.1.1 (3bf5ae0d25, 2021-09-20, custom)"
   xmlns:inkscape="http://www.inkscape.org/namespaces/inkscape"
   xmlns:sodipodi="http://sodipodi.sourceforge.net/DTD/sodipodi-0.dtd"
   xmlns="http://www.w3.org/2000/svg"
   xmlns:svg="http://www.w3.org/2000/svg">
  <defs
     id="defs4051" />
  <sodipodi:namedview
     id="namedview4049"
     pagecolor="#505050"
     bordercolor="#eeeeee"
     borderopacity="1"
     inkscape:pageshadow="0"
     inkscape:pageopacity="0"
     inkscape:pagecheckerboard="0"
     showgrid="false"
     inkscape:zoom="24.750022"
     inkscape:cx="6.8080748"
     inkscape:cy="11.313121"
     inkscape:window-width="1920"
     inkscape:window-height="1011"
     inkscape:window-x="0"
     inkscape:window-y="32"
     inkscape:window-maximized="1"
     inkscape:current-layer="svg4047" />
  <circle
     style="opacity:0.2;fill:#000000;fill-opacity:1;stroke-width:0.365897"
     id="circle1933"
     cx="8.8571434"
     cy="13.643071"
     r="7.1428571" />
  <path
     style="opacity:0.2;fill:#000000;fill-opacity:1;stroke:none;stroke-width:0.357143px;stroke-linecap:butt;stroke-linejoin:miter;stroke-opacity:1"
     d="M 15.642857,11.500215 16.714285,10.071643 13.857143,6.8573575 11.714286,7.2145 Z"
     id="path1935" />
  <path
     style="opacity:0.2;fill:#000000;fill-opacity:1;stroke:none;stroke-width:0.357143px;stroke-linecap:butt;stroke-linejoin:miter;stroke-opacity:1"
     d="m 15.545592,8.7878125 c 0,0 1.402294,0.125495 1.916703,-0.314341 0.514409,-0.4398355 0.439458,-0.558439 0.420492,-0.8452155 -0.01897,-0.286776 -0.23241,-0.4004405 -0.233735,-0.7422885 -0.0013,-0.341848 0.136662,-0.385753 0.136662,-0.385753 h 0.357143 L 18.5,7.571643 V 6.8573575 L 19.928571,7.571643 18.857143,6.5002145 h 1.428571 L 18.857143,5.428786 20.285714,4.3573575 18.5,4.7145 19.214286,2.2145 17.694297,4.4739905 17.071429,2.928786 V 4.3573575 L 16.357143,3.6430717 16.609189,4.912595 14.928571,4.3573575 16.357143,5.428786 17.071429,5.7859285 c 0,0 -0.130439,0.62023 -0.0958,0.9391475 0.03463,0.3189175 0.281926,0.6829565 0.270493,0.9044775 -0.01143,0.221521 -0.04916,0.5891125 -1.060777,0.574344 C 15.17373,8.1891275 14.825198,8.08988 14.825198,8.08988 Z"
     id="path1937"
     sodipodi:nodetypes="cssccccccccccccccccccccssscc" />
  <circle
     style="fill:#e4e4e4;fill-opacity:1;stroke-width:0.365897"
     id="path2734"
     cx="8.8571434"
     cy="13.142857"
     r="7.1428571" />
  <path
     style="fill:#e4e4e4;fill-opacity:1;stroke:none;stroke-width:0.357143px;stroke-linecap:butt;stroke-linejoin:miter;stroke-opacity:1"
     d="M 15.642857,11 16.714285,9.571429 13.857143,6.357143 11.714286,6.7142855 Z"
     id="path3031" />
  <path
     style="fill:#e4e4e4;fill-opacity:1;stroke:none;stroke-width:0.357143px;stroke-linecap:butt;stroke-linejoin:miter;stroke-opacity:1"
     d="m 15.545592,8.287598 c 0,0 1.402294,0.125495 1.916703,-0.314341 C 17.976704,7.5334215 17.901753,7.414818 17.882787,7.1280415 17.863817,6.8412655 17.650377,6.727601 17.649052,6.385753 17.647752,6.043905 17.785714,6 17.785714,6 h 0.357143 l 0.357142,1.0714285 V 6.357143 L 19.928571,7.0714285 18.857142,6 h 1.428572 l -1.428572,-1.0714285 1.428572,-1.0714287 -1.785715,0.3571427 0.714286,-2.5 -1.519988,2.2594905 -0.622869,-1.5452045 v 1.4285713 l -0.714285,-0.7142857 0.252046,1.2695234 -1.680618,-0.5552377 1.428572,1.0714287 0.714286,0.3571425 c 0,0 -0.130439,0.62023 -0.0958,0.9391475 0.03463,0.3189175 0.281925,0.6829565 0.270493,0.9044775 -0.01143,0.221521 -0.04916,0.5891125 -1.060777,0.574344 C 15.17373,7.688913 14.825198,7.5896655 14.825198,7.5896655 Z"
     id="path5759"
     sodipodi:nodetypes="cssccccccccccccccccccccssscc" />
  <circle
     style="fill:#4f4f4f;fill-opacity:1;stroke-width:0.292717"
     id="circle11261"
     cx="8.8571434"
     cy="13.142857"
     r="5.7142859" />
  <circle
     style="fill:#c2352a;fill-opacity:1;stroke-width:0.274422"
     id="circle11281"
     cx="8.8571434"
     cy="13.142857"
     r="5.3571429" />
  <rect
     style="opacity:0.2;fill:#000000;fill-opacity:1;stroke:none;stroke-width:0.357143"
     id="rect2029"
     width="2.5"
     height="0.71428573"
     x="11.357143"
     y="13.642811"
     ry="0.35714287" />
  <rect
     style="opacity:0.2;fill:#000000;fill-opacity:1;stroke:none;stroke-width:0.357143"
     id="rect2031"
     width="2.5"
     height="0.71428573"
     x="3.0731204"
     y="16.654993"
     ry="0.35714287"
     transform="rotate(-30)" />
  <rect
     style="fill:#e4e4e4;fill-opacity:1;stroke:none;stroke-width:0.357143"
     id="rect34557"
     width="2.5"
     height="0.71428573"
     x="11.357143"
     y="13.142857"
     ry="0.35714287" />
  <rect
     style="fill:#e4e4e4;fill-opacity:1;stroke:none;stroke-width:0.357143"
     id="rect34741"
     width="2.5"
     height="0.71428573"
     x="3.3230965"
     y="16.222021"
     ry="0.35714287"
     transform="rotate(-30)" />
  <rect
     style="opacity:0.2;fill:#000000;fill-opacity:1;stroke:none;stroke-width:0.357143"
     id="rect2033"
     width="2.5"
     height="0.71428573"
     x="17.052355"
     y="-7.5577521"
     ry="0.35714287"
     transform="matrix(0.8660254,0.5,0.5,-0.8660254,0,0)" />
  <rect
     style="fill:#e4e4e4;fill-opacity:1;stroke:none;stroke-width:0.357143"
     id="rect34743"
     width="2.5"
     height="0.71428573"
     x="16.802378"
     y="-7.1247787"
     ry="0.35714287"
     transform="matrix(0.8660254,0.5,0.5,-0.8660254,0,0)" />
  <path
     id="path35519"
     style="opacity:0.2;fill:#000000;fill-opacity:1;stroke-width:0.274422"
     d="m 8.8574217,8.285156 c -2.8446661,0 -5.1706158,2.218019 -5.3457028,5.018555 a 5.357143,5.357143 0 0 0 4.7402338,5.15332 c 0.705433,-0.11294 0.842138,-0.276178 1.042969,-0.425781 0.236753,-0.176362 0.294922,-0.727539 0.294922,-0.727539 0,0 -0.02213,-1.220976 0.02735,-1.314453 0.04948,-0.09348 0.6189483,-0.682232 0.5908203,-0.799805 -0.02402,-0.100369 -0.5625403,-0.47859 -0.7021533,-0.58789 -0.139613,-0.109301 -0.933594,-0.613282 -0.933594,-0.613282 0,0 -0.122095,-0.04891 -0.137695,-0.139648 -0.0156,-0.09074 0.147461,-0.174805 0.147461,-0.174805 0,0 1.9849673,-0.876388 2.0341803,-0.979492 0.04949,-0.103682 -0.32737,-0.297897 -0.444336,-0.577148 -0.116968,-0.279251 0.01132,-0.698848 0.07226,-0.742188 0,0 0.386658,-0.01164 0.566406,-0.02832 0.179749,-0.01668 0.477844,-0.116737 0.584961,-0.5 C 11.502626,10.463417 10.702837,10.034152 10.091798,9.476563 9.7529037,9.167312 9.6714247,8.7028375 9.6640637,8.34668 9.3969767,8.305895 9.1276067,8.285237 8.8574237,8.2851565 Z" />
  <path
     id="path2143"
     style="fill:#e4e4e4;fill-opacity:1;stroke-width:0.274422"
     d="m 8.8571427,7.785714 c -2.9586681,0 -5.357143,2.398475 -5.357143,5.357143 8e-4,2.106964 1.2365709,4.017805 3.157785,4.882812 0.327445,0.0237 0.726868,0.03074 1.162806,-0.01255 1.098185,-0.109065 1.237857,-0.305641 1.47461,-0.482003 0.236753,-0.176362 0.295061,-0.726842 0.295061,-0.726842 0,0 -0.02227,-1.221394 0.02721,-1.314872 0.04948,-0.09348 0.6182503,-0.681813 0.5901223,-0.799386 -0.02402,-0.100368 -0.5621223,-0.478729 -0.7017343,-0.588029 -0.139613,-0.1093 -0.933315,-0.613142 -0.933315,-0.613142 0,0 -0.122514,-0.04947 -0.138114,-0.140206 -0.0156,-0.09074 0.14788,-0.174386 0.14788,-0.174386 0,0 1.9848273,-0.876249 2.0340403,-0.979353 0.04949,-0.103682 -0.327369,-0.298316 -0.444336,-0.577567 -0.116967,-0.279251 0.0109,-0.698848 0.07185,-0.742188 0,0 0.386658,-0.01122 0.566407,-0.02791 0.179748,-0.01668 0.478122,-0.116876 0.58524,-0.500139 C 11.502625,9.963832 10.702835,9.534708 10.091796,8.977119 9.7529017,8.6678675 9.6715627,8.203254 9.6642017,7.8470965 9.3971147,7.8063115 9.1273257,7.7857935 8.8571427,7.7857125 Z"
     sodipodi:nodetypes="cccsscssscscsssssscc" />
</svg>
